!!!COM:	Josquin des Pres
**kern	**kern
*part2	*part1
*staff2	*staff1
*clefG2	*clefG2
*k[]	*k[]
*M2/1	*M2/1
=1-	=1-
0r	1e
.	[1g
=2	=2
0r	2g]
.	2a
.	2b
.	[2cc
=3	=3
1e	2cc]
.	4b
.	4a
[1g	1b
=4	=4
2g]	[0e
2a	.
2b	.
[2cc	.
=5	=5
2cc]	0e]
4b	.
4a	.
1b	.
=6	=6
[0e	1b
.	2cc
.	[2b
=7	=7
0e]	2b]
.	2g
.	1g
=8	=8
1b	2r
.	2g
2cc	2c
[2b	[2g
=9	=9
2b]	2g]
2g	2e
1g	1e
=10	=10
2r	1b
2g	.
2c	2cc
[2g	[2b
=11	=11
2g]	4b]
.	4a
2e	2b
1e	2cc
.	2b
=12	=12
1b	1g
2cc	1r
[2b	.
=13	=13
4b]	1dd
4a	.
2b	.
2cc	2ee
2b	[2dd
=14	=14
1g	4dd]
.	4cc
.	2dd
1r	2ee
.	[2dd
=15	=15
1dd	2dd]
.	4cc
.	4b
2ee	2cc
[2dd	2dd
=16	=16
4dd]	1g
4cc	.
2dd	.
2ee	1r
[2dd	.
=17	=17
2dd]	1dd
4cc	.
4b	.
2cc	2ee
2dd	[2dd
=18	=18
1g	2dd]
.	4cc
.	4b
1r	2cc
.	2dd
=19	=19
1dd	1.g
2ee	.
[2dd	2f
=20	=20
2dd]	1g
4cc	.
4b	.
2cc	2a
2dd	[2g
=21	=21
1.g	4g]
.	4f
.	1e
2f	2d
=22	=22
1g	2e
.	2b
2a	2cc
[2g	2b
=23	=23
4g]	1e
4f	.
1e	.
.	1f
2d	.
=24	=24
2e	2e
2b	2g
2cc	2c
2b	[2g
=25	=25
1e	2g]
.	4f
.	4e
1f	1d
=26	=26
2e	1c
2g	.
2c	[1g
[2g	.
=27	=27
2g]	2g]
4f	2a
4e	.
1d	1b
=28	=28
1c	1cc
[1g	1b
=29	=29
2g]	2e
2a	2f
1b	2g
.	[2e
=30	=30
1cc	2e]
.	2c
1b	2d
.	[2e
=31	=31
2e	4e]
.	4c
2f	2d
2g	1e
[2e	.
=32	=32
2e]	2A
2c	2e
2d	2f
[2e	2g
=33	=33
4e]	2e
4c	.
2d	1a
1e	.
.	2g
=34	=34
2A	1.cc
2e	.
2f	.
2g	2b
=35	=35
2e	2.cc
1a	.
.	4b
.	2cc
2g	[2b
=36	=36
1.cc	4b]
.	4a
.	1a
2b	2g
=37	=37
2.cc	3a
.	3f
.	3g
4b	.
2cc	3e
.	3c
[2b	.
.	3d
=38	=38
4b]	3%2e
4a	.
1a	.
.	3c
.	3d
.	3%2B
2g	.
=39	=39
0a	0A
==	==
*-	*-
